ear-hearing-loop.svg

<svg fill="currentColor" viewBox="0 0 24 24"><path d="M12 6.5a2.5 2.5 0 0 0 0 5 2.5 2.5 0 0 0 0-5M16 17v2h2v4h2v-4h2v-2zm-4.31-3.53L3.67 22 2.4 20.73l7.35-7.86c.58.34 1.25.55 1.94.6M19 9c0 1.26-.38 2.65-1.07 3.9-.93 1.65-1.98 2.48-2.85 3.15-.81.62-1.39 1.07-1.71 2.05-.6 1.82-1.37 2.84-2.73 3.55-.51.23-1.07.35-1.64.35-1.19 0-2.25-.53-3-1.35l1.43-1.43a1.98 1.98 0 0 0 2.33.63c.71-.35 1.21-.88 1.71-2.38.53-1.56 1.47-2.29 2.39-3 .79-.61 1.61-1.24 2.32-2.53C16.71 11 17 9.93 17 9c0-2.8-2.2-5-5-5S7 6.2 7 9H5c0-3.93 3.07-7 7-7s7 3.07 7 7m-.63-4.88 2.35-2.39L22 3l-2.68 2.72c-.26-.57-.58-1.11-.95-1.6"/></svg>

<svg  viewBox="0 0 24 24" fill="currentColor"><path  d="M12 6.5C10.62 6.5 9.5 7.62 9.5 9S10.62 11.5 12 11.5 14.5 10.38 14.5 9 13.38 6.5 12 6.5M16 17V19H18V23H20V19H22V17H16M11.69 13.47L3.67 22L2.4 20.73L9.75 12.87C10.33 13.21 11 13.42 11.69 13.47M19 9C19 10.26 18.62 11.65 17.93 12.9C17 14.55 15.95 15.38 15.08 16.05C14.27 16.67 13.69 17.12 13.37 18.1C12.77 19.92 12 20.94 10.64 21.65C10.13 21.88 9.57 22 9 22C7.81 22 6.75 21.47 6 20.65L7.43 19.22C7.79 19.69 8.36 20 9 20C9.29 20 9.56 19.94 9.76 19.85C10.47 19.5 10.97 18.97 11.47 17.47C12 15.91 12.94 15.18 13.86 14.47C14.65 13.86 15.47 13.23 16.18 11.94C16.71 11 17 9.93 17 9C17 6.2 14.8 4 12 4S7 6.2 7 9H5C5 5.07 8.07 2 12 2S19 5.07 19 9M18.37 4.12L20.72 1.73L22 3L19.32 5.72C19.06 5.15 18.74 4.61 18.37 4.12Z"/></svg>
